X: 21175
T: Kathren Oggie
R: reel
M: 4/4
K: Gdorian
"Gm" D2 G2 G2 FG|"Dm" A2 G2 "Gm"G3 A|"C"c2cd "F"cAGF|F4 A2 GF|
"Gm"D2 G2 G2 FG|"Dm"A2 F2 ~f3 f|d2 cd fdcA|"Gm"G4 B ABc||
"Dm"defg fedc|"B"Bcde f3 c|"Dm"A2 f2 "F"cAGF|F4 A2 GF|
"Gm"B2 G2 G2 FG|"F"A2 F2 ~f3g|"Dm"agfd "F"cdcA|"Gm"G4 B4||

